X: 4
T: Wedding Reel, The
M: 4/4
L: 1/8
R: reel
K: Dmaj
|: DE |\ 
F2 BF AFEF | D2 DE FABd | e2 fd efed | B2 de dBAG |
F2 BF AFEF | D2 DE FABd | e2 fd efdB | ABde d2 :|
|: dB |\
A3 f edfd | A3 f edfd | ABdA BdAB | dBAF EFDE |
F2 BF AFEF | D2 DE FABd | e2 fd efdB | ABde d2 :|
